X:34
T:The Fine Companion
M:6/4
L:1/4
K:DAeol
d2 f dda | c>de f>ed | a2 g aag | a e4 d| eee e2 d |
c>de A2 e | f2 d c>de |[1 d3 f3 :|[2 d3 f2 ||
d | cAA e2 d | cAB A2 e | fde fde | f3 g3 |
aaa c>de | ffe fda | ccd ecA | [1 d3 f2 :| [2 d3 f3 ||
%
%
